X:7063
T:the March of the men of Devon
O:england
R:Reel
M:4/4
K:D
A>G|\
FD D2DFAd| cAA2 Aceg| fddc Bggf|e/f/e/d/ c/d/c/B/ A/B/A/G/ F/G/F/E/|
FD D2DFAd| cAA2 Aceg| fddc Bgec| f2f2 f2::
fg|\
affd fdfa| geec eceg| fddc Bggf|e/f/e/d/ c/d/c/B/ A/B/A/G/ F/G/F/E/|
FD D2DFAd| cAA2 Aceg| fddc Bgec| f2f2 f2:|


